X:31
M:C|
L:1/8
K:D
g|fddc d2Ag|fddB ceeg|fddc d2AF|GBAF Addg|fddc d2Ag|fddB ceeg|
fdcd BgAf|GBAF Add||

